X: 1
T: Your Smile Tonight Mother Dear
O: Australia, Ireland
R: waltz
Z: 2014 John Chambers <jc:trillian.mit.edu>
N: In a set for Pride of Erin
S: http://www.kangaroovalleyfolkfestival.com.au/USERIMAGES/Bush%20Dance%2014-05-03.pdf
M: 3/4
L: 1/4
K: D
|:\
"D"A2 F | A2 d | f3- | f2 e |\
d2 F | c2 B | "A7"A3- | A2 A ||\
"A7"E2 F | G2 A |
c3- | c2 B |\
[1 A2 B | G2 A | "D"F3- | F2 G :|\
[2 "A7"A2 A | "G"B2 "A7"c | "D"d3- | d3 |]
